X: 37131
T: Siney Crotty's
R: jig
M: 6/8
K: Gmajor
|:B2d ~G3|ABA AGE|~D2E G2A|B/c/dB AGA|
B2d ~G3|ABA AGE|~D2E G2A|~G3 G2A:|
|:B2d ~d2B|~d2e ~d2B|c2e ~e2d|e2g ded|
B2d ~d2B|~d2e d3|e2g g2a|~g3 egd:|

